S/superorbital.io logo.svg

<?xml version="1.0" ?>
<svg xmlns="http://www.w3.org/2000/svg" viewBox="0 0 491 193">
	<!-- Generator: Sketch 49 (51002) - http://www.bohemiancoding.com/sketch -->
	<title>logo-tall</title>
	<desc>Created with Sketch.</desc>
	<g id="Page-1" stroke="none" stroke-width="1" fill="none" fill-rule="evenodd">
		<g id="Group-2" fill="#000000">
			<g id="logo">
				<g id="containerlessSvgTemplate">
					<g id="Group">
						<path d="M137.543986,137.543986 C122.588869,152.499102 106.718133,165.470377 91,175.847397 C92.8312388,176 94.6624776,176 96.4937163,176 C140.443447,176 176,140.443447 176,96.4937163 C176,94.6624776 176,92.8312388 175.847397,91 C165.470377,106.718133 152.499102,122.588869 137.543986,137.543986 L137.543986,137.543986 Z M185.617743,7.31005094 C173.367217,-4.94671137 148.253638,-1.72931126 116.708534,16.5026227 C115.789744,16.9622513 115.177218,17.8815084 115.024086,18.8007656 C112.573981,18.1879275 110.123876,17.7282989 107.67377,17.4218799 C103.998613,16.9622513 100.323455,16.6558322 96.4951654,16.6558322 C52.3932712,16.6558322 16.7136138,52.3536524 16.7136138,96.4779968 C16.7136138,100.308235 17.019877,103.985264 17.4792717,107.662292 C17.7855349,110.113645 18.2449296,112.564997 18.8574559,115.01635 C17.9386664,115.322769 17.019877,115.935607 16.5604823,116.701655 C-1.66217539,148.262818 -5.03107008,173.38918 7.37258765,185.645943 C12.2727981,190.548648 19.1637191,193 27.7390874,193 C40.7552714,193 57.2934817,187.484457 76.2817972,176.453371 C94.9638496,165.575494 114.41156,150.407751 132.481086,132.329027 C150.39748,114.403512 165.710638,94.9459015 176.58298,76.1011294 C194.652506,44.693176 198.021401,19.5668133 185.617743,7.31005094 L185.617743,7.31005094 Z M169.627893,71.8525753 C159.048525,90.0919699 144.329403,109.097726 126.697122,126.570759 C109.064841,144.197065 90.2059671,158.911198 71.9603894,169.486982 C44.3620367,185.427293 21.5167337,189.412371 12.0106344,179.909493 C2.96450768,170.713159 6.33763968,149.101776 20.7501128,122.892226 C21.823382,125.95767 23.0499755,128.869842 24.5832173,131.782015 C32.2494264,147.109237 44.8220093,159.677559 60.1544275,167.34117 C62.7609385,165.96172 65.5207738,164.58227 68.2806091,163.049548 C85.91289,152.933582 104.311792,138.37272 121.330776,121.359503 C138.503084,104.193014 152.915557,85.9536199 163.034953,68.3273142 C164.721519,65.5684142 166.101437,62.8095142 167.32803,60.2038864 C159.661821,44.876664 147.089238,32.3083417 131.75682,24.6447305 C128.843661,23.2652805 125.930501,21.8858305 122.864018,20.8129249 C149.082453,6.40533595 170.701162,2.88007481 179.900613,12.0764082 C189.406713,21.4260138 185.420284,44.4168473 169.627893,71.8525753 L169.627893,71.8525753 Z" id="Shape"/>
					</g>
				</g>
			</g>
			<path d="M232.496,95.152 C228.39998,95.152 224.32002,94.4000075 220.256,92.896 C216.19198,91.3919925 212.560016,89.136015 209.36,86.128 L217.424,76.432 C219.664011,78.3520096 222.143986,79.9199939 224.864,81.136 C227.584014,82.3520061 230.255987,82.96 232.88,82.96 C235.824015,82.96 238.015993,82.4160054 239.456,81.328 C240.896007,80.2399946 241.616,78.7680093 241.616,76.912 C241.616,75.9519952 241.408002,75.1200035 240.992,74.416 C240.575998,73.7119965 239.968004,73.0880027 239.168,72.544 C238.367996,71.9999973 237.408006,71.4880024 236.288,71.008 L232.592,69.424 L224.432,65.968 C222.831992,65.3279968 221.280008,64.4960051 219.776,63.472 C218.271992,62.4479949 216.928006,61.2480069 215.744,59.872 C214.559994,58.4959931 213.616004,56.8960091 212.912,55.072 C212.207996,53.2479909 211.856,51.1840115 211.856,48.88 C211.856,46.3199872 212.399995,43.9040114 213.488,41.632 C214.576005,39.3599886 216.11199,37.3760085 218.096,35.68 C220.08001,33.9839915 222.431986,32.6560048 225.152,31.696 C227.872014,30.7359952 230.863984,30.256 234.128,30.256 C237.776018,30.256 241.375982,30.959993 244.928,32.368 C248.480018,33.776007 251.599987,35.8239866 254.288,38.512 L247.088,47.44 C245.03999,45.839992 242.99201,44.6080043 240.944,43.744 C238.89599,42.8799957 236.624012,42.448 234.128,42.448 C231.695988,42.448 229.760007,42.943995 228.32,43.936 C226.879993,44.928005 226.16,46.319991 226.16,48.112 C226.16,49.0720048 226.399998,49.8879966 226.88,50.56 C227.360002,51.2320034 228.031996,51.8399973 228.896,52.384 C229.760004,52.9280027 230.767994,53.4399976 231.92,53.92 C233.072006,54.4000024 234.319993,54.9279971 235.664,55.504 L243.728,58.768 C247.568019,60.3040077 250.591989,62.4159866 252.8,65.104 C255.008011,67.7920134 256.112,71.3439779 256.112,75.76 C256.112,78.3840131 255.584005,80.8639883 254.528,83.2 C253.471995,85.5360117 251.93601,87.5839912 249.92,89.344 C247.90399,91.1040088 245.424015,92.5119947 242.48,93.568 C239.535985,94.6240053 236.208019,95.152 232.496,95.152 Z M291.44,95.152 C283.311959,95.152 277.104021,92.752024 272.816,87.952 C268.527979,83.151976 266.384,75.5040525 266.384,65.008 L266.384,31.408 L280.592,31.408 L280.592,66.448 C280.592,72.5920307 281.519991,76.8799878 283.376,79.312 C285.232009,81.7440122 287.919982,82.96 291.44,82.96 C294.960018,82.96 297.67999,81.7440122 299.6,79.312 C301.52001,76.8799878 302.48,72.5920307 302.48,66.448 L302.48,31.408 L316.112,31.408 L316.112,65.008 C316.112,75.5040525 314.016021,83.151976 309.824,87.952 C305.631979,92.752024 299.50404,95.152 291.44,95.152 Z M330.608,94 L330.608,31.408 L352.112,31.408 C355.568017,31.408 358.799985,31.7439966 361.808,32.416 C364.816015,33.0880034 367.439989,34.2079922 369.68,35.776 C371.920011,37.3440078 373.695993,39.423987 375.008,42.016 C376.320007,44.608013 376.976,47.7919811 376.976,51.568 C376.976,55.2160182 376.320007,58.3839866 375.008,61.072 C373.695993,63.7600134 371.920011,65.9679914 369.68,67.696 C367.439989,69.4240086 364.848015,70.7039958 361.904,71.536 C358.959985,72.3680042 355.824017,72.784 352.496,72.784 L344.72,72.784 L344.72,94 L330.608,94 Z M344.72,61.552 L351.632,61.552 C359.312038,61.552 363.152,58.2240333 363.152,51.568 C363.152,48.3039837 362.12801,46.0000067 360.08,44.656 C358.03199,43.3119933 355.088019,42.64 351.248,42.64 L344.72,42.64 L344.72,61.552 Z M387.824,94 L387.824,31.408 L426.992,31.408 L426.992,43.312 L401.936,43.312 L401.936,55.888 L423.248,55.888 L423.248,67.696 L401.936,67.696 L401.936,82.096 L427.952,82.096 L427.952,94 L387.824,94 Z M440.432,94 L440.432,31.408 L462.992,31.408 C466.320017,31.408 469.439985,31.7279968 472.352,32.368 C475.264015,33.0080032 477.807989,34.0799925 479.984,35.584 C482.160011,37.0880075 483.887994,39.0879875 485.168,41.584 C486.448006,44.0800125 487.088,47.1839814 487.088,50.896 C487.088,55.504023 486.08001,59.2959851 484.064,62.272 C482.04799,65.2480149 479.344017,67.4719926 475.952,68.944 L490.16,94 L474.32,94 L462.32,71.44 L454.544,71.44 L454.544,94 L440.432,94 Z M454.544,60.208 L461.84,60.208 C465.552019,60.208 468.38399,59.4240078 470.336,57.856 C472.28801,56.2879922 473.264,53.9680154 473.264,50.896 C473.264,47.8239846 472.28801,45.6800061 470.336,44.464 C468.38399,43.2479939 465.552019,42.64 461.84,42.64 L454.544,42.64 L454.544,60.208 Z" id="super"/>
			<path d="M229.556581,177.152 C226.323309,177.152 223.336688,176.368008 220.596628,174.8 C217.856567,173.231992 215.50015,171.008014 213.527307,168.128 C211.554463,165.247986 210.020052,161.77602 208.924028,157.712 C207.828004,153.64798 207.28,149.120025 207.28,144.128 C207.28,139.135975 207.828004,134.64002 208.924028,130.64 C210.020052,126.63998 211.554463,123.216014 213.527307,120.368 C215.50015,117.519986 217.856567,115.344008 220.596628,113.84 C223.336688,112.335992 226.323309,111.584 229.556581,111.584 C232.844653,111.584 235.858675,112.335992 238.598735,113.84 C241.338796,115.344008 243.695213,117.519986 245.668056,120.368 C247.6409,123.216014 249.175311,126.63998 250.271335,130.64 C251.367359,134.64002 251.915363,139.135975 251.915363,144.128 C251.915363,149.120025 251.367359,153.64798 250.271335,157.712 C249.175311,161.77602 247.6409,165.247986 245.668056,168.128 C243.695213,171.008014 241.338796,173.231992 238.598735,174.8 C235.858675,176.368008 232.844653,177.152 229.556581,177.152 Z M229.556581,173.12 C232.296641,173.12 234.790059,172.432007 237.036909,171.056 C239.283758,169.679993 241.215472,167.728013 242.832108,165.2 C244.448743,162.671987 245.695452,159.632018 246.572272,156.08 C247.449091,152.527982 247.887494,148.544022 247.887494,144.128 C247.887494,139.775978 247.449091,135.840018 246.572272,132.32 C245.695452,128.799982 244.448743,125.808012 242.832108,123.344 C241.215472,120.879988 239.283758,118.976007 237.036909,117.632 C234.790059,116.287993 232.296641,115.616 229.556581,115.616 C226.81652,115.616 224.309402,116.287993 222.035152,117.632 C219.760902,118.976007 217.829188,120.879988 216.239953,123.344 C214.650718,125.808012 213.417709,128.799982 212.54089,132.32 C211.664071,135.840018 211.225667,139.775978 211.225667,144.128 C211.225667,148.544022 211.664071,152.527982 212.54089,156.08 C213.417709,159.632018 214.650718,162.671987 216.239953,165.2 C217.829188,167.728013 219.760902,169.679993 222.035152,171.056 C224.309402,172.432007 226.81652,173.12 229.556581,173.12 Z M264.327775,176 L264.327775,112.736 L279.863841,112.736 C282.5491,112.736 284.987717,113.039997 287.179766,113.648 C289.371814,114.256003 291.235027,115.231993 292.769461,116.576 C294.303895,117.920007 295.495804,119.647989 296.345222,121.76 C297.194641,123.872011 297.619344,126.431985 297.619344,129.44 C297.619344,134.496025 296.372635,138.463986 293.87918,141.344 C291.385725,144.224014 288.001801,145.983997 283.727307,146.624 L298.687963,176 L294.331288,176 L279.617237,146.912 L268.10904,146.912 L268.10904,176 L264.327775,176 Z M268.10904,143.264 L278.877424,143.264 C283.69993,143.264 287.385257,142.128011 289.933513,139.856 C292.481769,137.583989 293.755878,134.112023 293.755878,129.44 C293.755878,124.703976 292.468069,121.36001 289.892412,119.408 C287.316755,117.45599 283.645129,116.48 278.877424,116.48 L268.10904,116.48 L268.10904,143.264 Z M309.04534,176 L309.04534,112.736 L323.67719,112.736 C329.157311,112.736 333.513942,113.967988 336.747213,116.432 C339.980485,118.896012 341.597096,122.783973 341.597096,128.096 C341.597096,131.424017 340.884691,134.319988 339.459859,136.784 C338.035028,139.248012 335.952613,140.959995 333.212553,141.92 L333.212553,142.304 C336.71983,143.008004 339.54205,144.623987 341.679297,147.152 C343.816545,149.680013 344.885152,153.151978 344.885152,157.568 C344.885152,160.640015 344.405649,163.327988 343.446628,165.632 C342.487606,167.936012 341.131297,169.855992 339.377658,171.392 C337.624019,172.928008 335.514204,174.079996 333.04815,174.848 C330.582095,175.616004 327.814676,176 324.745808,176 L309.04534,176 Z M312.826604,140.576 L322.197564,140.576 C327.732487,140.576 331.719215,139.504011 334.157869,137.36 C336.596523,135.215989 337.815831,132.288019 337.815831,128.576 C337.815831,124.095978 336.528022,120.944009 333.952365,119.12 C331.376708,117.295991 327.595482,116.384 322.608571,116.384 L312.826604,116.384 L312.826604,140.576 Z M312.826604,172.352 L323.759391,172.352 C329.184711,172.352 333.445441,171.168012 336.54171,168.8 C339.637978,166.431988 341.186089,162.720025 341.186089,157.664 C341.186089,153.055977 339.679078,149.664011 336.665012,147.488 C333.650945,145.311989 329.349115,144.224 323.759391,144.224 L312.826604,144.224 L312.826604,172.352 Z M356.557752,176 L356.557752,112.736 L360.339016,112.736 L360.339016,176 L356.557752,176 Z M387.958689,176 L387.958689,116.576 L370.696393,116.576 L370.696393,112.736 L409.002248,112.736 L409.002248,116.576 L391.739953,116.576 L391.739953,176 L387.958689,176 Z M423.551897,138.752 L420.099438,150.56 L439.334567,150.56 L435.882108,138.752 C434.786084,134.975981 433.744876,131.360017 432.758454,127.904 C431.772033,124.447983 430.813026,120.76802 429.881405,116.864 L429.5526,116.864 C428.620979,120.76802 427.661972,124.447983 426.67555,127.904 C425.689129,131.360017 424.647921,134.975981 423.551897,138.752 Z M408.755644,176 L427.82637,112.736 L431.607635,112.736 L450.678361,176 L446.732693,176 L440.403185,154.304 L418.948618,154.304 L412.536909,176 L408.755644,176 Z M459.309508,176 L459.309508,112.736 L463.090773,112.736 L463.090773,172.16 L488.08,172.16 L488.08,176 L459.309508,176 Z" id="orbital"/>
		</g>
	</g>
</svg>

<?xml version="1.0" ?>
<svg xmlns="http://www.w3.org/2000/svg" role="img" viewBox="-10.31 -9.81 510.12 212.12">
	<g fill="#000" fill-rule="evenodd" stroke="none" stroke-width="1">
		<path d="M137.54399 137.54399C122.58887 152.4991 106.71813 165.47038 91 175.84739 92.83124 176 94.66248 176 96.49372 176 140.44345 176 176 140.44345 176 96.49372c0-1.83124 0-3.66248-.1526-5.49372-10.37702 15.71813-23.3483 31.58887-38.30341 46.54399zM185.61774 7.31005c-12.25052-12.25676-37.3641-9.03936-68.9092 9.19257-.9188.45963-1.53132 1.37889-1.68445 2.29815-2.4501-.61284-4.90021-1.07247-7.35032-1.37889-3.67516-.45963-7.35032-.76605-11.1786-.76605-44.1019 0-79.78156 35.69782-79.78156 79.82217 0 3.83024.30627 7.50726.76566 11.1843.30626 2.45135.76566 4.9027 1.37819 7.35405-.9188.30642-1.83758.91926-2.29698 1.6853-18.22266 31.56117-21.59155 56.68753-9.1879 68.9443C12.2728 190.54864 19.16373 193 27.73909 193c13.0162 0 29.5544-5.51554 48.54272-16.54663 18.68205-10.87788 38.12976-26.04562 56.19929-44.12434 17.91639-17.92552 33.22955-37.38313 44.10189-56.2279 18.06953-31.40795 21.43842-56.53432 9.03476-68.79108zM169.6279 71.85258c-10.57936 18.23939-25.29849 37.24515-42.93077 54.71818-17.63228 17.6263-36.49115 32.34044-54.73673 42.91622-27.59835 15.94031-50.44366 19.9254-59.94976 10.42251-9.04612-9.19633-5.67299-30.80771 8.73948-57.01726 1.07327 3.06544 2.29987 5.97761 3.8331 8.88979 7.66622 15.32722 20.2388 27.89554 35.57122 35.55915 2.6065-1.37945 5.36634-2.7589 8.12618-4.29162 17.63228-10.11597 36.03118-24.67683 53.05017-41.69005 17.1723-17.16649 31.58478-35.40588 41.70417-53.03219 1.68657-2.7589 3.06649-5.5178 4.29308-8.12342-7.6662-15.32723-20.2388-27.89555-35.57121-35.55916-2.91316-1.37945-5.82632-2.7589-8.8928-3.8318 26.21843-14.4076 47.83714-17.93286 57.0366-8.73652 9.5061 9.3496 5.51966 32.34044-10.27273 59.77617z"/>
		<path d="M232.496 95.152c-4.09602 0-8.17598-.752-12.24-2.256-4.06402-1.504-7.69598-3.75999-10.896-6.768l8.064-9.696c2.24001 1.92001 4.71999 3.488 7.44 4.704 2.72001 1.216 5.39199 1.824 8.016 1.824 2.94402 0 5.136-.544 6.576-1.632 1.44-1.088 2.16-2.56 2.16-4.416 0-.96-.208-1.792-.624-2.496-.416-.704-1.024-1.328-1.824-1.872s-1.76-1.056-2.88-1.536l-3.696-1.584-8.16-3.456c-1.6-.64-3.152-1.472-4.656-2.496-1.504-1.024-2.848-2.224-4.032-3.6-1.184-1.376-2.128-2.976-2.832-4.8-.704-1.824-1.056-3.88799-1.056-6.192 0-2.56001.544-4.97599 1.632-7.248 1.088-2.27201 2.62399-4.256 4.608-5.952 1.98401-1.696 4.33599-3.024 7.056-3.984 2.72001-.96 5.71198-1.44 8.976-1.44 3.64802 0 7.24798.704 10.8 2.112 3.55202 1.408 6.67199 3.45599 9.36 6.144l-7.2 8.928c-2.04801-1.6-4.09599-2.832-6.144-3.696-2.04801-.864-4.31999-1.296-6.816-1.296-2.43201 0-4.368.496-5.808 1.488-1.44.992-2.16 2.384-2.16 4.176 0 .96.24 1.776.72 2.448.48.672 1.152 1.28 2.016 1.824.864.544 1.872 1.056 3.024 1.536s2.4 1.008 3.744 1.584l8.064 3.264c3.84002 1.536 6.86399 3.64799 9.072 6.336 2.20801 2.68801 3.312 6.23998 3.312 10.656 0 2.62401-.528 5.10399-1.584 7.44-1.056 2.33601-2.59199 4.384-4.608 6.144-2.01601 1.76-4.49598 3.168-7.44 4.224-2.94401 1.056-6.27198 1.584-9.984 1.584zm58.944 0c-8.12804 0-14.33598-2.39998-18.624-7.2-4.28802-4.80002-6.432-12.44795-6.432-22.944v-33.6h14.208v35.04c0 6.14403.928 10.43199 2.784 12.864 1.856 2.43201 4.54398 3.648 8.064 3.648 3.52002 0 6.23999-1.21599 8.16-3.648 1.92001-2.43201 2.88-6.71997 2.88-12.864v-35.04h13.632v33.6c0 10.49605-2.09598 18.14398-6.288 22.944s-10.31996 7.2-18.384 7.2zM330.608 94V31.408h21.504c3.45602 0 6.68798.336 9.696 1.008 3.00802.672 5.63199 1.792 7.872 3.36 2.24001 1.568 4.016 3.64799 5.328 6.24 1.312 2.59201 1.968 5.77598 1.968 9.552 0 3.64802-.656 6.81599-1.968 9.504-1.312 2.68801-3.08799 4.896-5.328 6.624-2.24001 1.728-4.83199 3.008-7.776 3.84-2.94401.832-6.07998 1.248-9.408 1.248h-7.776V94h-14.112zm14.112-32.448h6.912c7.68004 0 11.52-3.32797 11.52-9.984 0-3.26402-1.02399-5.568-3.072-6.912-2.04801-1.344-4.99198-2.016-8.832-2.016h-6.528v18.912zM387.824 94V31.408h39.168v11.904h-25.056v12.576h21.312v11.808h-21.312v14.4h26.016V94h-40.128zm52.608 0V31.408h22.56c3.32802 0 6.44798.32 9.36.96 2.91201.64 5.45599 1.712 7.632 3.216 2.17601 1.504 3.904 3.50399 5.184 6 1.28 2.49601 1.92 5.59998 1.92 9.312 0 4.60802-1.00799 8.39999-3.024 11.376-2.01601 2.97601-4.71998 5.2-8.112 6.672L490.16 94h-15.84l-12-22.56h-7.776V94h-14.112zm14.112-33.792h7.296c3.71202 0 6.54399-.784 8.496-2.352 1.95201-1.568 2.928-3.88798 2.928-6.96 0-3.07202-.97599-5.216-2.928-6.432-1.95201-1.216-4.78398-1.824-8.496-1.824h-7.296v17.568z"/>
		<path d="M229.55658 177.152c-3.23327 0-6.2199-.784-8.95995-2.352-2.74006-1.568-5.09648-3.79199-7.06932-6.672-1.97285-2.88001-3.50726-6.35198-4.60328-10.416-1.09603-4.06402-1.64403-8.59197-1.64403-13.584 0-4.99202.548-9.48798 1.64403-13.488 1.09602-4.00002 2.63043-7.42399 4.60328-10.272 1.97284-2.84801 4.32926-5.024 7.06932-6.528 2.74006-1.504 5.72668-2.256 8.95995-2.256 3.28807 0 6.3021.752 9.04216 2.256 2.74006 1.504 5.09647 3.67999 7.06932 6.528 1.97284 2.84801 3.50725 6.27198 4.60327 10.272 1.09603 4.00002 1.64403 8.49598 1.64403 13.488 0 4.99203-.548 9.51998-1.64402 13.584-1.09603 4.06402-2.63044 7.53599-4.60328 10.416-1.97285 2.88001-4.32926 5.104-7.06932 6.672-2.74006 1.568-5.75409 2.352-9.04216 2.352zm0-4.032c2.74006 0 5.23348-.688 7.48033-2.064 2.24685-1.376 4.17856-3.32799 5.7952-5.856 1.61663-2.52801 2.86334-5.56798 3.74016-9.12.87682-3.55202 1.31522-7.53598 1.31522-11.952 0-4.35202-.4384-8.28798-1.31522-11.808-.87682-3.52002-2.12353-6.51199-3.74016-8.976-1.61664-2.46401-3.54835-4.368-5.7952-5.712-2.24685-1.344-4.74027-2.016-7.48033-2.016-2.74006 0-5.24718.672-7.52143 2.016-2.27425 1.344-4.20596 3.24799-5.7952 5.712-1.58923 2.46401-2.82224 5.45598-3.69906 8.976-.87682 3.52002-1.31522 7.45598-1.31522 11.808 0 4.41602.4384 8.39998 1.31522 11.952.87682 3.55202 2.10983 6.59199 3.69906 9.12 1.58924 2.52801 3.52095 4.48 5.7952 5.856 2.27425 1.376 4.78137 2.064 7.52143 2.064zm34.7712 2.88v-63.264h15.53606c2.68526 0 5.12388.304 7.31593.912 2.19204.608 4.05526 1.584 5.5897 2.928 1.53442 1.344 2.72633 3.07199 3.57575 5.184.84942 2.11201 1.27412 4.67198 1.27412 7.68 0 5.05603-1.2467 9.02399-3.74016 11.904-2.49346 2.88001-5.87738 4.64-10.15187 5.28L298.68796 176h-4.35667l-14.71405-29.088h-11.5082V176h-3.78127zm3.78126-32.736h10.76838c4.82251 0 8.50784-1.13599 11.0561-3.408 2.54825-2.27201 3.82236-5.74398 3.82236-10.416 0-4.73602-1.28781-8.07999-3.86347-10.032-2.57565-1.95201-6.24728-2.928-11.01499-2.928h-10.76838v26.784zM309.04534 176v-63.264h14.63185c5.48012 0 9.83675 1.23199 13.07002 3.696 3.23327 2.46401 4.84989 6.35197 4.84989 11.664 0 3.32802-.7124 6.22399-2.13724 8.688-1.42483 2.46401-3.50725 4.176-6.2473 5.136v.384c3.50727.704 6.32949 2.31999 8.46674 4.848 2.13725 2.52801 3.20585 5.99998 3.20585 10.416 0 3.07201-.4795 5.75999-1.43852 8.064s-2.31533 4.224-4.06897 5.76c-1.75364 1.536-3.86346 2.688-6.32951 3.456-2.46606.768-5.23347 1.152-8.30234 1.152h-15.70047zm3.78126-35.424h9.37096c5.53493 0 9.52166-1.07199 11.9603-3.216 2.43866-2.14401 3.65797-5.07198 3.65797-8.784 0-4.48002-1.2878-7.632-3.86347-9.456-2.57565-1.824-6.35688-2.736-11.34379-2.736h-9.78197v24.192zm0 31.776h10.9328c5.42531 0 9.68604-1.18399 12.78231-3.552 3.09627-2.36801 4.64438-6.07998 4.64438-11.136 0-4.60802-1.50701-7.99999-4.52108-10.176-3.01407-2.17601-7.3159-3.264-12.90562-3.264H312.8266v28.128zM356.55775 176v-63.264h3.78127V176h-3.78127zm31.40094 0v-59.424h-17.2623v-3.84h38.30586v3.84h-17.2623V176h-3.78126zm35.5932-37.248l-3.45245 11.808h19.23513l-3.45246-11.808c-1.09603-3.77602-2.13723-7.39198-3.12366-10.848-.98642-3.45602-1.94542-7.13598-2.87705-11.04h-.3288c-.93162 3.90402-1.89063 7.58398-2.87705 11.04-.98642 3.45602-2.02763 7.07198-3.12365 10.848zM408.75565 176l19.07073-63.264h3.78127L450.67836 176h-3.94567l-6.3295-21.696h-21.45457L412.5369 176h-3.78127zm50.55387 0v-63.264h3.78126v59.424H488.08V176h-28.7705z"/>
	</g>
</svg>
